hbomax.svg

<?xml version="1.0" encoding="UTF-8" standalone="no"?>
<!DOCTYPE svg PUBLIC "-//W3C//DTD SVG 1.1//EN" "http://www.w3.org/Graphics/SVG/1.1/DTD/svg11.dtd">
<!-- Created with Vectornator (http://vectornator.io/) -->
<svg height="100%" stroke-miterlimit="10" style="fill-rule:nonzero;clip-rule:evenodd;stroke-linecap:round;stroke-linejoin:round;" version="1.1" viewBox="0 0 24 24" width="100%" xml:space="preserve" xmlns="http://www.w3.org/2000/svg" xmlns:vectornator="http://vectornator.io" xmlns:xlink="http://www.w3.org/1999/xlink">
<defs>
<linearGradient gradientTransform="matrix(0.0218174 0 0 0.0218174 -56.7253 14.2865)" gradientUnits="userSpaceOnUse" id="LinearGradient" x1="3080.64" x2="3700" y1="-104.745" y2="-104.745">
<stop offset="0" stop-color="#991eeb"/>
<stop offset="0.399" stop-color="#5822b4"/>
<stop offset="0.727" stop-color="#5822b4"/>
<stop offset="1" stop-color="#991eeb"/>
</linearGradient>
<radialGradient cx="1494.39" cy="-276.441" gradientTransform="matrix(0.0146613 0 0 0.0190859 -8.17037 16.5117)" gradientUnits="userSpaceOnUse" id="RadialGradient" r="164.575">
<stop offset="0" stop-color="#7ba7f2" stop-opacity="0.5"/>
<stop offset="1" stop-color="#7ba7f2" stop-opacity="0"/>
</radialGradient>
<radialGradient cx="3339.86" cy="-386.742" gradientTransform="matrix(0.0218174 0 0 0.0154489 -56.7253 19.8286)" gradientUnits="userSpaceOnUse" id="RadialGradient_2" r="227.558">
<stop offset="0.2" stop-color="#7ba7f2"/>
<stop offset="1" stop-color="#7ba7f2" stop-opacity="0"/>
</radialGradient>
<radialGradient cx="3479.59" cy="-189.161" gradientTransform="matrix(0.0218174 0 0 0.0218174 -56.7253 14.2865)" gradientUnits="userSpaceOnUse" id="RadialGradient_3" r="123.773">
<stop offset="0" stop-color="#7ba7f2"/>
<stop offset="1" stop-color="#7ba7f2" stop-opacity="0"/>
</radialGradient>
</defs>
<g id="g52" vectornator:layerName="g52">
<g opacity="1">
<path d="M2.95626 14.0617L1.85012 14.0617L1.85012 12.4843L1.13451 12.4843L1.13451 14.0617L0 14.0617L0 9.9928L1.13232 9.9928L1.13232 11.5113L1.84794 11.5113L1.84794 9.9928L2.95408 9.9928L2.95408 14.0617L2.95626 14.0617ZM8.02663 14.0792C9.15896 14.0792 10.084 13.1367 10.084 11.9891C10.084 10.824 9.15896 9.92298 8.02663 9.92298C6.87904 9.92298 6.29869 10.7564 6.15906 11.0968C6.15906 10.5928 5.65508 9.99061 5.07037 9.99061L3.18098 9.99061L3.18098 14.0617L4.93947 14.0617C5.65508 14.0617 6.15906 13.4509 6.15906 12.9142C6.31833 13.2458 6.88122 14.0792 8.02663 14.0792ZM4.79983 12.4254C4.96347 12.4254 5.09437 12.5847 5.09437 12.7658C5.09437 12.9556 4.96347 13.1149 4.79983 13.1149L4.23695 13.1149L4.23695 12.4254L4.79983 12.4254ZM4.79983 10.8982C4.96347 10.8982 5.09437 11.0575 5.09437 11.2386C5.09437 11.4197 4.96347 11.5789 4.79983 11.5789L4.23695 11.5789L4.23695 10.8982L4.79983 10.8982ZM5.54381 11.9891C5.67471 11.9804 5.88852 11.8298 5.96925 11.7404C5.9387 11.8495 5.9387 12.1942 5.96925 12.3033C5.8798 12.1702 5.67471 12.0131 5.54381 11.9891ZM6.99467 11.9891C6.99467 11.4153 7.46156 10.9528 8.03536 10.9549C8.61134 10.9593 9.06951 11.4284 9.06296 12.0044C9.05423 12.5716 8.59607 13.0276 8.02882 13.0276C7.4572 13.0276 6.99467 12.5651 6.99467 11.9891ZM8.02663 12.8051C8.46735 12.8051 8.83824 12.4429 8.83824 11.9891C8.83824 11.5353 8.46735 11.1775 8.02663 11.1775C7.57283 11.1775 7.21066 11.5353 7.21066 11.9891C7.21066 12.4429 7.57283 12.8051 8.02663 12.8051Z" fill="#000000" fill-rule="nonzero" opacity="1" stroke="none"/>
<g opacity="1">
<path d="M15.9965 11.4327C15.9747 10.4466 15.2766 9.92516 14.4213 9.92516C13.9522 9.92516 13.529 10.0822 13.241 10.3877C12.953 10.0822 12.5298 9.92516 12.0607 9.92516C11.2054 9.92516 10.5073 10.4488 10.4855 11.4349C10.4855 11.4371 10.4855 11.4393 10.4855 11.4415L10.4855 13.6909C10.4855 13.8981 10.6535 14.0639 10.8585 14.0639L11.212 14.0639C11.2469 14.0639 11.2752 14.0356 11.2752 14.0007L11.2752 11.4393L11.2752 11.4393C11.2905 10.9528 11.6352 10.6953 12.0607 10.6953C12.4861 10.6953 12.8308 10.9528 12.8461 11.4393L12.8461 11.4393L12.8461 13.6887C12.8461 13.8959 13.0141 14.0617 13.2192 14.0617L13.5726 14.0617C13.6075 14.0617 13.6359 14.0334 13.6359 13.9985L13.6359 11.4371L13.6359 11.4371C13.6512 10.9506 13.9959 10.6931 14.4213 10.6931C14.8468 10.6931 15.1915 10.9506 15.2068 11.4371L15.2068 11.4371L15.2068 13.6865C15.2068 13.8938 15.3747 14.0596 15.5798 14.0596L15.9333 14.0596C15.9682 14.0596 15.9965 14.0312 15.9965 13.9963L15.9965 11.4349C15.9987 11.4371 15.9965 11.4349 15.9965 11.4327ZM23.9534 9.98843L23.3534 9.98843C23.1876 9.98843 23.0327 10.0713 22.9388 10.2088L22.2756 11.1906C22.1883 11.3193 22.0007 11.3193 21.9134 11.1906L21.2502 10.2088C21.1585 10.0713 21.0015 9.98843 20.8356 9.98843L20.2357 9.98843C20.1986 9.98843 20.1768 10.0299 20.1964 10.0604L21.3789 11.8146C21.464 11.9411 21.464 12.1069 21.3789 12.2334L20.1964 13.9876C20.1746 14.0181 20.1986 14.0596 20.2357 14.0596L20.8356 14.0596C21.0015 14.0596 21.1564 13.9767 21.2502 13.8392L21.9134 12.8574C22.0007 12.7287 22.1883 12.7287 22.2756 12.8574L22.9388 13.8392C23.0305 13.9767 23.1876 14.0596 23.3534 14.0596L23.9534 14.0596C23.9904 14.0596 24.0123 14.0181 23.9926 13.9876L22.8079 12.2356C22.7229 12.1091 22.7229 11.9433 22.8079 11.8167L23.9904 10.0626C24.0123 10.0321 23.9904 9.98843 23.9534 9.98843ZM19.9259 9.98843L19.5724 9.98843C19.3935 9.98843 19.243 10.115 19.2059 10.283C18.8917 10.043 18.4968 9.9208 18.0714 9.9208C17.0372 9.9208 16.1973 10.6408 16.1973 12C16.1973 13.3592 17.0351 14.0792 18.0714 14.0792C18.4946 14.0792 18.8852 13.9592 19.1993 13.7236C19.2168 13.9134 19.3761 14.0639 19.5724 14.0639L19.9259 14.0639C19.9608 14.0639 19.9891 14.0356 19.9891 14.0007L19.9891 10.0517C19.9869 10.0168 19.9608 9.98843 19.9259 9.98843ZM18.0714 13.3069C17.4539 13.3069 16.9521 12.8552 16.9521 12.0022C16.9521 11.1491 17.4539 10.6975 18.0714 10.6975C18.6888 10.6975 19.1906 11.1491 19.1906 12.0022C19.1906 12.8552 18.6888 13.3069 18.0714 13.3069Z" fill="url(#LinearGradient)" fill-rule="nonzero" opacity="1" stroke="none"/>
<g opacity="1">
<g opacity="1">
<clipPath id="ClipPath">
<path d="M15.9965 11.4327C15.9747 10.4466 15.2766 9.92516 14.4213 9.92516C13.9522 9.92516 13.529 10.0822 13.241 10.3877C12.953 10.0822 12.5298 9.92516 12.0607 9.92516C11.2054 9.92516 10.5073 10.4488 10.4855 11.4349C10.4855 11.4371 10.4855 11.4393 10.4855 11.4415L10.4855 13.6909C10.4855 13.8981 10.6535 14.0639 10.8585 14.0639L11.212 14.0639C11.2469 14.0639 11.2752 14.0356 11.2752 14.0007L11.2752 11.4393L11.2752 11.4393C11.2905 10.9528 11.6352 10.6953 12.0607 10.6953C12.4861 10.6953 12.8308 10.9528 12.8461 11.4393L12.8461 11.4393L12.8461 13.6887C12.8461 13.8959 13.0141 14.0617 13.2192 14.0617L13.5726 14.0617C13.6075 14.0617 13.6359 14.0334 13.6359 13.9985L13.6359 11.4371L13.6359 11.4371C13.6512 10.9506 13.9959 10.6931 14.4213 10.6931C14.8468 10.6931 15.1915 10.9506 15.2068 11.4371L15.2068 11.4371L15.2068 13.6865C15.2068 13.8938 15.3747 14.0596 15.5798 14.0596L15.9333 14.0596C15.9682 14.0596 15.9965 14.0312 15.9965 13.9963L15.9965 11.4349C15.9987 11.4371 15.9965 11.4349 15.9965 11.4327ZM23.9534 9.98843L23.3534 9.98843C23.1876 9.98843 23.0327 10.0713 22.9388 10.2088L22.2756 11.1906C22.1883 11.3193 22.0007 11.3193 21.9134 11.1906L21.2502 10.2088C21.1585 10.0713 21.0015 9.98843 20.8356 9.98843L20.2357 9.98843C20.1986 9.98843 20.1768 10.0299 20.1964 10.0604L21.3789 11.8146C21.464 11.9411 21.464 12.1069 21.3789 12.2334L20.1964 13.9876C20.1746 14.0181 20.1986 14.0596 20.2357 14.0596L20.8356 14.0596C21.0015 14.0596 21.1564 13.9767 21.2502 13.8392L21.9134 12.8574C22.0007 12.7287 22.1883 12.7287 22.2756 12.8574L22.9388 13.8392C23.0305 13.9767 23.1876 14.0596 23.3534 14.0596L23.9534 14.0596C23.9904 14.0596 24.0123 14.0181 23.9926 13.9876L22.8079 12.2356C22.7229 12.1091 22.7229 11.9433 22.8079 11.8167L23.9904 10.0626C24.0123 10.0321 23.9904 9.98843 23.9534 9.98843ZM19.9259 9.98843L19.5724 9.98843C19.3935 9.98843 19.243 10.115 19.2059 10.283C18.8917 10.043 18.4968 9.9208 18.0714 9.9208C17.0372 9.9208 16.1973 10.6408 16.1973 12C16.1973 13.3592 17.0351 14.0792 18.0714 14.0792C18.4946 14.0792 18.8852 13.9592 19.1993 13.7236C19.2168 13.9134 19.3761 14.0639 19.5724 14.0639L19.9259 14.0639C19.9608 14.0639 19.9891 14.0356 19.9891 14.0007L19.9891 10.0517C19.9869 10.0168 19.9608 9.98843 19.9259 9.98843ZM18.0714 13.3069C17.4539 13.3069 16.9521 12.8552 16.9521 12.0022C16.9521 11.1491 17.4539 10.6975 18.0714 10.6975C18.6888 10.6975 19.1906 11.1491 19.1906 12.0022C19.1906 12.8552 18.6888 13.3069 18.0714 13.3069Z"/>
</clipPath>
<g clip-path="url(#ClipPath)">
<path d="M11.3254 11.2364C11.3254 9.50127 12.4058 8.09468 13.7384 8.09468C15.0711 8.09468 16.1514 9.50127 16.1514 11.2364C16.1514 12.9715 15.0711 14.3781 13.7384 14.3781C12.4058 14.3781 11.3254 12.9715 11.3254 11.2364Z" fill="url(#RadialGradient)" fill-rule="nonzero" opacity="1" stroke="none"/>
</g>
</g>
<g opacity="1">
<clipPath id="ClipPath_2">
<path d="M15.9965 11.4327C15.9747 10.4466 15.2766 9.92516 14.4213 9.92516C13.9522 9.92516 13.529 10.0822 13.241 10.3877C12.953 10.0822 12.5298 9.92516 12.0607 9.92516C11.2054 9.92516 10.5073 10.4488 10.4855 11.4349C10.4855 11.4371 10.4855 11.4393 10.4855 11.4415L10.4855 13.6909C10.4855 13.8981 10.6535 14.0639 10.8585 14.0639L11.212 14.0639C11.2469 14.0639 11.2752 14.0356 11.2752 14.0007L11.2752 11.4393L11.2752 11.4393C11.2905 10.9528 11.6352 10.6953 12.0607 10.6953C12.4861 10.6953 12.8308 10.9528 12.8461 11.4393L12.8461 11.4393L12.8461 13.6887C12.8461 13.8959 13.0141 14.0617 13.2192 14.0617L13.5726 14.0617C13.6075 14.0617 13.6359 14.0334 13.6359 13.9985L13.6359 11.4371L13.6359 11.4371C13.6512 10.9506 13.9959 10.6931 14.4213 10.6931C14.8468 10.6931 15.1915 10.9506 15.2068 11.4371L15.2068 11.4371L15.2068 13.6865C15.2068 13.8938 15.3747 14.0596 15.5798 14.0596L15.9333 14.0596C15.9682 14.0596 15.9965 14.0312 15.9965 13.9963L15.9965 11.4349C15.9987 11.4371 15.9965 11.4349 15.9965 11.4327ZM23.9534 9.98843L23.3534 9.98843C23.1876 9.98843 23.0327 10.0713 22.9388 10.2088L22.2756 11.1906C22.1883 11.3193 22.0007 11.3193 21.9134 11.1906L21.2502 10.2088C21.1585 10.0713 21.0015 9.98843 20.8356 9.98843L20.2357 9.98843C20.1986 9.98843 20.1768 10.0299 20.1964 10.0604L21.3789 11.8146C21.464 11.9411 21.464 12.1069 21.3789 12.2334L20.1964 13.9876C20.1746 14.0181 20.1986 14.0596 20.2357 14.0596L20.8356 14.0596C21.0015 14.0596 21.1564 13.9767 21.2502 13.8392L21.9134 12.8574C22.0007 12.7287 22.1883 12.7287 22.2756 12.8574L22.9388 13.8392C23.0305 13.9767 23.1876 14.0596 23.3534 14.0596L23.9534 14.0596C23.9904 14.0596 24.0123 14.0181 23.9926 13.9876L22.8079 12.2356C22.7229 12.1091 22.7229 11.9433 22.8079 11.8167L23.9904 10.0626C24.0123 10.0321 23.9904 9.98843 23.9534 9.98843ZM19.9259 9.98843L19.5724 9.98843C19.3935 9.98843 19.243 10.115 19.2059 10.283C18.8917 10.043 18.4968 9.9208 18.0714 9.9208C17.0372 9.9208 16.1973 10.6408 16.1973 12C16.1973 13.3592 17.0351 14.0792 18.0714 14.0792C18.4946 14.0792 18.8852 13.9592 19.1993 13.7236C19.2168 13.9134 19.3761 14.0639 19.5724 14.0639L19.9259 14.0639C19.9608 14.0639 19.9891 14.0356 19.9891 14.0007L19.9891 10.0517C19.9869 10.0168 19.9608 9.98843 19.9259 9.98843ZM18.0714 13.3069C17.4539 13.3069 16.9521 12.8552 16.9521 12.0022C16.9521 11.1491 17.4539 10.6975 18.0714 10.6975C18.6888 10.6975 19.1906 11.1491 19.1906 12.0022C19.1906 12.8552 18.6888 13.3069 18.0714 13.3069Z"/>
</clipPath>
<g clip-path="url(#ClipPath_2)">
<path d="M11.1771 13.8545C11.1771 11.9133 13.4003 10.3397 16.1427 10.3397C18.8852 10.3397 21.1084 11.9133 21.1084 13.8545C21.1084 15.7956 18.8852 17.3693 16.1427 17.3693C13.4003 17.3693 11.1771 15.7956 11.1771 13.8545Z" fill="url(#RadialGradient_2)" fill-rule="nonzero" opacity="1" stroke="none"/>
</g>
</g>
<g opacity="1">
<clipPath id="ClipPath_3">
<path d="M15.9965 11.4327C15.9747 10.4466 15.2766 9.92516 14.4213 9.92516C13.9522 9.92516 13.529 10.0822 13.241 10.3877C12.953 10.0822 12.5298 9.92516 12.0607 9.92516C11.2054 9.92516 10.5073 10.4488 10.4855 11.4349C10.4855 11.4371 10.4855 11.4393 10.4855 11.4415L10.4855 13.6909C10.4855 13.8981 10.6535 14.0639 10.8585 14.0639L11.212 14.0639C11.2469 14.0639 11.2752 14.0356 11.2752 14.0007L11.2752 11.4393L11.2752 11.4393C11.2905 10.9528 11.6352 10.6953 12.0607 10.6953C12.4861 10.6953 12.8308 10.9528 12.8461 11.4393L12.8461 11.4393L12.8461 13.6887C12.8461 13.8959 13.0141 14.0617 13.2192 14.0617L13.5726 14.0617C13.6075 14.0617 13.6359 14.0334 13.6359 13.9985L13.6359 11.4371L13.6359 11.4371C13.6512 10.9506 13.9959 10.6931 14.4213 10.6931C14.8468 10.6931 15.1915 10.9506 15.2068 11.4371L15.2068 11.4371L15.2068 13.6865C15.2068 13.8938 15.3747 14.0596 15.5798 14.0596L15.9333 14.0596C15.9682 14.0596 15.9965 14.0312 15.9965 13.9963L15.9965 11.4349C15.9987 11.4371 15.9965 11.4349 15.9965 11.4327ZM23.9534 9.98843L23.3534 9.98843C23.1876 9.98843 23.0327 10.0713 22.9388 10.2088L22.2756 11.1906C22.1883 11.3193 22.0007 11.3193 21.9134 11.1906L21.2502 10.2088C21.1585 10.0713 21.0015 9.98843 20.8356 9.98843L20.2357 9.98843C20.1986 9.98843 20.1768 10.0299 20.1964 10.0604L21.3789 11.8146C21.464 11.9411 21.464 12.1069 21.3789 12.2334L20.1964 13.9876C20.1746 14.0181 20.1986 14.0596 20.2357 14.0596L20.8356 14.0596C21.0015 14.0596 21.1564 13.9767 21.2502 13.8392L21.9134 12.8574C22.0007 12.7287 22.1883 12.7287 22.2756 12.8574L22.9388 13.8392C23.0305 13.9767 23.1876 14.0596 23.3534 14.0596L23.9534 14.0596C23.9904 14.0596 24.0123 14.0181 23.9926 13.9876L22.8079 12.2356C22.7229 12.1091 22.7229 11.9433 22.8079 11.8167L23.9904 10.0626C24.0123 10.0321 23.9904 9.98843 23.9534 9.98843ZM19.9259 9.98843L19.5724 9.98843C19.3935 9.98843 19.243 10.115 19.2059 10.283C18.8917 10.043 18.4968 9.9208 18.0714 9.9208C17.0372 9.9208 16.1973 10.6408 16.1973 12C16.1973 13.3592 17.0351 14.0792 18.0714 14.0792C18.4946 14.0792 18.8852 13.9592 19.1993 13.7236C19.2168 13.9134 19.3761 14.0639 19.5724 14.0639L19.9259 14.0639C19.9608 14.0639 19.9891 14.0356 19.9891 14.0007L19.9891 10.0517C19.9869 10.0168 19.9608 9.98843 19.9259 9.98843ZM18.0714 13.3069C17.4539 13.3069 16.9521 12.8552 16.9521 12.0022C16.9521 11.1491 17.4539 10.6975 18.0714 10.6975C18.6888 10.6975 19.1906 11.1491 19.1906 12.0022C19.1906 12.8552 18.6888 13.3069 18.0714 13.3069Z"/>
</clipPath>
<g clip-path="url(#ClipPath_3)">
<path d="M16.4896 10.1586C16.4896 8.66689 17.6989 7.45761 19.1906 7.45761C20.6823 7.45761 21.8916 8.66689 21.8916 10.1586C21.8916 11.6503 20.6823 12.8596 19.1906 12.8596C17.6989 12.8596 16.4896 11.6503 16.4896 10.1586Z" fill="url(#RadialGradient_3)" fill-rule="nonzero" opacity="1" stroke="none"/>
</g>
</g>
</g>
</g>
</g>
</g>
</svg>

<svg stroke-miterlimit="10" style="fill-rule:nonzero;clip-rule:evenodd;stroke-linecap:round;stroke-linejoin:round" viewBox="0 0 24 24" xml:space="preserve" xmlns="http://www.w3.org/2000/svg" xmlns:vectornator="http://vectornator.io"><defs><radialGradient cx="1494.39" cy="-276.441" gradientTransform="matrix(.01466 0 0 .01909 -8.17 16.512)" gradientUnits="userSpaceOnUse" id="c" r="164.575"><stop offset="0" stop-color="#7ba7f2" stop-opacity=".5"/><stop offset="1" stop-color="#7ba7f2" stop-opacity="0"/></radialGradient><radialGradient cx="3339.86" cy="-386.742" gradientTransform="matrix(.02182 0 0 .01545 -56.725 19.829)" gradientUnits="userSpaceOnUse" id="e" r="227.558"><stop offset=".2" stop-color="#7ba7f2"/><stop offset="1" stop-color="#7ba7f2" stop-opacity="0"/></radialGradient><radialGradient cx="3479.59" cy="-189.161" gradientTransform="matrix(.02182 0 0 .02182 -56.725 14.287)" gradientUnits="userSpaceOnUse" id="g" r="123.773"><stop offset="0" stop-color="#7ba7f2"/><stop offset="1" stop-color="#7ba7f2" stop-opacity="0"/></radialGradient><linearGradient gradientTransform="matrix(.02182 0 0 .02182 -56.725 14.287)" gradientUnits="userSpaceOnUse" id="a" x1="3080.64" x2="3700" y1="-104.745" y2="-104.745"><stop offset="0" stop-color="#991eeb"/><stop offset=".399" stop-color="#5822b4"/><stop offset=".727" stop-color="#5822b4"/><stop offset="1" stop-color="#991eeb"/></linearGradient></defs><g vectornator:layerName="g52"><path d="M2.956 14.062H1.85v-1.578h-.715v1.578H0v-4.07h1.132v1.52h.716v-1.52h1.106v4.07h.002Zm5.07.017c1.133 0 2.058-.942 2.058-2.09a2.049 2.049 0 0 0-2.057-2.066 2.034 2.034 0 0 0-1.868 1.174c0-.504-.504-1.106-1.089-1.106H3.181v4.07h1.758c.716 0 1.22-.61 1.22-1.147.16.332.722 1.165 1.868 1.165ZM4.8 12.425c.163 0 .294.16.294.34 0 .19-.13.35-.294.35h-.563v-.69H4.8Zm0-1.527c.163 0 .294.16.294.34 0 .182-.13.34-.294.34h-.563v-.68H4.8Zm.744 1.091c.13-.009.345-.16.425-.249-.03.11-.03.454 0 .563-.09-.133-.294-.29-.425-.314Zm1.45 0a1.035 1.035 0 1 1 2.069.015 1.034 1.034 0 0 1-2.068-.015Zm1.033.816a.813.813 0 0 0 0-1.628.808.808 0 0 0-.816.812c0 .454.362.816.816.816Z"/><path d="M15.996 11.433c-.021-.986-.72-1.508-1.575-1.508-.469 0-.892.157-1.18.463-.288-.306-.711-.463-1.18-.463-.856 0-1.554.524-1.575 1.51v2.256c0 .207.167.373.372.373h.354a.063.063 0 0 0 .063-.063v-2.562c.015-.486.36-.744.786-.744.425 0 .77.258.785.744v2.25c0 .207.168.373.373.373h.354a.063.063 0 0 0 .063-.063v-2.562c.015-.486.36-.744.785-.744.426 0 .77.258.786.744v2.25c0 .207.168.373.373.373h.353a.063.063 0 0 0 .063-.064v-2.561c.003.002 0 0 0-.002Zm7.957-1.445h-.6a.503.503 0 0 0-.414.22l-.663.983a.218.218 0 0 1-.363 0l-.663-.982a.5.5 0 0 0-.414-.22h-.6a.047.047 0 0 0-.04.071l1.183 1.755a.375.375 0 0 1 0 .418l-1.183 1.755c-.021.03.003.072.04.072h.6c.166 0 .32-.083.414-.22l.663-.983a.218.218 0 0 1 .363 0l.663.982a.5.5 0 0 0 .414.22h.6a.047.047 0 0 0 .04-.071l-1.185-1.752a.376.376 0 0 1 0-.42l1.182-1.753c.022-.03 0-.075-.037-.075Zm-4.027 0h-.354a.377.377 0 0 0-.366.295 1.85 1.85 0 0 0-1.135-.362c-1.034 0-1.874.72-1.874 2.079 0 1.36.838 2.08 1.874 2.08.424 0 .814-.12 1.128-.356.018.19.177.34.373.34h.354a.063.063 0 0 0 .063-.063v-3.95c-.002-.034-.028-.063-.063-.063Zm-1.855 3.319c-.617 0-1.119-.452-1.119-1.305s.502-1.305 1.12-1.305c.617 0 1.119.452 1.119 1.305s-.502 1.305-1.12 1.305Z" fill="url(#a)"/><clipPath id="b"><path d="M15.996 11.433c-.021-.986-.72-1.508-1.575-1.508-.469 0-.892.157-1.18.463-.288-.306-.711-.463-1.18-.463-.856 0-1.554.524-1.575 1.51v2.256c0 .207.167.373.372.373h.354a.063.063 0 0 0 .063-.063v-2.562c.015-.486.36-.744.786-.744.425 0 .77.258.785.744v2.25c0 .207.168.373.373.373h.354a.063.063 0 0 0 .063-.063v-2.562c.015-.486.36-.744.785-.744.426 0 .77.258.786.744v2.25c0 .207.168.373.373.373h.353a.063.063 0 0 0 .063-.064v-2.561c.003.002 0 0 0-.002Zm7.957-1.445h-.6a.503.503 0 0 0-.414.22l-.663.983a.218.218 0 0 1-.363 0l-.663-.982a.5.5 0 0 0-.414-.22h-.6a.047.047 0 0 0-.04.071l1.183 1.755a.375.375 0 0 1 0 .418l-1.183 1.755c-.021.03.003.072.04.072h.6c.166 0 .32-.083.414-.22l.663-.983a.218.218 0 0 1 .363 0l.663.982a.5.5 0 0 0 .414.22h.6a.047.047 0 0 0 .04-.071l-1.185-1.752a.376.376 0 0 1 0-.42l1.182-1.753c.022-.03 0-.075-.037-.075Zm-4.027 0h-.354a.377.377 0 0 0-.366.295 1.85 1.85 0 0 0-1.135-.362c-1.034 0-1.874.72-1.874 2.079 0 1.36.838 2.08 1.874 2.08.424 0 .814-.12 1.128-.356.018.19.177.34.373.34h.354a.063.063 0 0 0 .063-.063v-3.95c-.002-.034-.028-.063-.063-.063Zm-1.855 3.319c-.617 0-1.119-.452-1.119-1.305s.502-1.305 1.12-1.305c.617 0 1.119.452 1.119 1.305s-.502 1.305-1.12 1.305Z"/></clipPath><g clip-path="url(#b)"><path d="M11.325 11.236c0-1.735 1.08-3.141 2.413-3.141 1.333 0 2.413 1.406 2.413 3.141 0 1.736-1.08 3.142-2.413 3.142-1.332 0-2.413-1.406-2.413-3.142Z" fill="url(#c)"/></g><clipPath id="d"><path d="M15.996 11.433c-.021-.986-.72-1.508-1.575-1.508-.469 0-.892.157-1.18.463-.288-.306-.711-.463-1.18-.463-.856 0-1.554.524-1.575 1.51v2.256c0 .207.167.373.372.373h.354a.063.063 0 0 0 .063-.063v-2.562c.015-.486.36-.744.786-.744.425 0 .77.258.785.744v2.25c0 .207.168.373.373.373h.354a.063.063 0 0 0 .063-.063v-2.562c.015-.486.36-.744.785-.744.426 0 .77.258.786.744v2.25c0 .207.168.373.373.373h.353a.063.063 0 0 0 .063-.064v-2.561c.003.002 0 0 0-.002Zm7.957-1.445h-.6a.503.503 0 0 0-.414.22l-.663.983a.218.218 0 0 1-.363 0l-.663-.982a.5.5 0 0 0-.414-.22h-.6a.047.047 0 0 0-.04.071l1.183 1.755a.375.375 0 0 1 0 .418l-1.183 1.755c-.021.03.003.072.04.072h.6c.166 0 .32-.083.414-.22l.663-.983a.218.218 0 0 1 .363 0l.663.982a.5.5 0 0 0 .414.22h.6a.047.047 0 0 0 .04-.071l-1.185-1.752a.376.376 0 0 1 0-.42l1.182-1.753c.022-.03 0-.075-.037-.075Zm-4.027 0h-.354a.377.377 0 0 0-.366.295 1.85 1.85 0 0 0-1.135-.362c-1.034 0-1.874.72-1.874 2.079 0 1.36.838 2.08 1.874 2.08.424 0 .814-.12 1.128-.356.018.19.177.34.373.34h.354a.063.063 0 0 0 .063-.063v-3.95c-.002-.034-.028-.063-.063-.063Zm-1.855 3.319c-.617 0-1.119-.452-1.119-1.305s.502-1.305 1.12-1.305c.617 0 1.119.452 1.119 1.305s-.502 1.305-1.12 1.305Z"/></clipPath><g clip-path="url(#d)"><path d="M11.177 13.854c0-1.94 2.223-3.514 4.966-3.514 2.742 0 4.965 1.573 4.965 3.514 0 1.942-2.223 3.515-4.965 3.515-2.743 0-4.966-1.573-4.966-3.514Z" fill="url(#e)"/></g><clipPath id="f"><path d="M15.996 11.433c-.021-.986-.72-1.508-1.575-1.508-.469 0-.892.157-1.18.463-.288-.306-.711-.463-1.18-.463-.856 0-1.554.524-1.575 1.51v2.256c0 .207.167.373.372.373h.354a.063.063 0 0 0 .063-.063v-2.562c.015-.486.36-.744.786-.744.425 0 .77.258.785.744v2.25c0 .207.168.373.373.373h.354a.063.063 0 0 0 .063-.063v-2.562c.015-.486.36-.744.785-.744.426 0 .77.258.786.744v2.25c0 .207.168.373.373.373h.353a.063.063 0 0 0 .063-.064v-2.561c.003.002 0 0 0-.002Zm7.957-1.445h-.6a.503.503 0 0 0-.414.22l-.663.983a.218.218 0 0 1-.363 0l-.663-.982a.5.5 0 0 0-.414-.22h-.6a.047.047 0 0 0-.04.071l1.183 1.755a.375.375 0 0 1 0 .418l-1.183 1.755c-.021.03.003.072.04.072h.6c.166 0 .32-.083.414-.22l.663-.983a.218.218 0 0 1 .363 0l.663.982a.5.5 0 0 0 .414.22h.6a.047.047 0 0 0 .04-.071l-1.185-1.752a.376.376 0 0 1 0-.42l1.182-1.753c.022-.03 0-.075-.037-.075Zm-4.027 0h-.354a.377.377 0 0 0-.366.295 1.85 1.85 0 0 0-1.135-.362c-1.034 0-1.874.72-1.874 2.079 0 1.36.838 2.08 1.874 2.08.424 0 .814-.12 1.128-.356.018.19.177.34.373.34h.354a.063.063 0 0 0 .063-.063v-3.95c-.002-.034-.028-.063-.063-.063Zm-1.855 3.319c-.617 0-1.119-.452-1.119-1.305s.502-1.305 1.12-1.305c.617 0 1.119.452 1.119 1.305s-.502 1.305-1.12 1.305Z"/></clipPath><g clip-path="url(#f)"><path d="M16.49 10.159a2.701 2.701 0 1 1 5.402 0 2.701 2.701 0 0 1-5.402 0Z" fill="url(#g)"/></g></g></svg>
